build/flags/Croatia.svg

<svg xmlns="http://www.w3.org/2000/svg" fill="none" viewBox="0 0 28 28" focusable="false"><defs><linearGradient id="Croatia_svg__c" x1="10.667" x2="10.667" y1="10.667" y2="18.667" gradientUnits="userSpaceOnUse"><stop offset="0" stop-color="#FF202D"/><stop offset="1" stop-color="#FD0D1B"/></linearGradient><filter id="Croatia_svg__a"><feColorMatrix values="0 0 0 0 1 0 0 0 0 1 0 0 0 0 1 0 0 0 1 0"/></filter></defs><mask id="Croatia_svg__b" width="28" height="20" x="0" y="4" maskUnits="userSpaceOnUse"><g filter="url(#Croatia_svg__a)"><rect width="28" height="20" y="4" fill="#FFF" rx="3"/><rect width="27.5" height="19.5" x=".25" y="4.25" stroke="#F5F5F5" stroke-width=".5" rx="2.75"/></g></mask><path fill="none" d="M0 0H28V28H0z"/><rect width="28" height="20" y="4" fill="#FFF" rx="3"/><rect width="27.5" height="19.5" x=".25" y="4.25" stroke="#D6D8DD" stroke-width=".5" rx="2.75"/><g mask="url(#Croatia_svg__b)"><path fill="#FF202D" fill-rule="evenodd" d="M0 10.6667L28 10.6667L28 4L0 4L0 10.6667Z"/><path d="M28 10.6667L28 4L0 4L0 10.6667L28 10.6667Z"/><g style="mix-blend-mode:normal"><path fill="#1895DB" fill-rule="evenodd" d="M10.6667 9.33335L11.3334 8.66669L12 9.33335L12 10.6667L10.6667 10.6667L10.6667 9.33335ZM13.3334 9.33335L14 8.66669L14.6667 9.33335L14.6667 10.6667L13.3334 10.6667L13.3334 9.33335ZM16.6667 8.66669L16 9.33335L16 10.6667L17.3334 10.6667L17.3334 9.33335L16.6667 8.66669Z" opacity=".5"/><path d="M10.6667 9.33335L11.3334 8.66669L12 9.33335L12 10.6667L10.6667 10.6667L10.6667 9.33335ZM13.3334 9.33335L14 8.66669L14.6667 9.33335L14.6667 10.6667L13.3334 10.6667L13.3334 9.33335ZM16.6667 8.66669L16 9.33335L16 10.6667L17.3334 10.6667L17.3334 9.33335L16.6667 8.66669Z" opacity=".5"/></g><g style="mix-blend-mode:normal"><path fill="#191F94" fill-rule="evenodd" d="M12.6667 8.66669L12 9.33335L12 10.6667L13.3333 10.6667L13.3333 9.33335L12.6667 8.66669ZM15.3333 8.66669L14.6667 9.33335L14.6667 10.6667L16 10.6667L16 9.33335L15.3333 8.66669Z" opacity=".5"/><path d="M12.6667 8.66669L12 9.33335L12 10.6667L13.3333 10.6667L13.3333 9.33335L12.6667 8.66669ZM15.3333 8.66669L14.6667 9.33335L14.6667 10.6667L16 10.6667L16 9.33335L15.3333 8.66669Z" opacity=".5"/></g><path fill="#2027AC" fill-rule="evenodd" d="M0 24L28 24L28 17.3333L0 17.3333L0 24Z"/><path d="M28 24L28 17.3333L0 17.3333L0 24L28 24Z"/><path fill="url(#Croatia_svg__c)" fill-rule="evenodd" d="M11.3334 10.6667L12 10.6667L12 12L10.6667 12L11.3334 10.6667ZM13.3334 12L12 12L12 13.3334L10.6667 13.3334L10.6667 14.6667L12 14.6667L12 16L10.6667 16L10.6667 17.3334L12 17.3334L12 18.6667L13.3334 18.6667L13.3334 17.3334L14.6667 17.3334L14.6667 18.6667L16 18.6667L16 17.3334L17.3334 17.3334L17.3334 16L16 16L16 14.6667L17.3334 14.6667L17.3334 13.3334L16 13.3334L16 12L17.3334 12L16.6667 10.6667L16 10.6667L16 12L14.6667 12L14.6667 10.6667L13.3334 10.6667L13.3334 12ZM13.3334 13.3334L13.3334 12L14.6667 12L14.6667 13.3334L13.3334 13.3334ZM13.3334 14.6667L13.3334 13.3334L12 13.3334L12 14.6667L13.3334 14.6667ZM14.6667 14.6667L13.3334 14.6667L13.3334 16L12 16L12 17.3334L13.3334 17.3334L13.3334 16L14.6667 16L14.6667 17.3334L16 17.3334L16 16L14.6667 16L14.6667 14.6667ZM14.6667 14.6667L16 14.6667L16 13.3334L14.6667 13.3334L14.6667 14.6667Z"/><path d="M11.3334 10.6667L12 10.6667L12 12L10.6667 12L11.3334 10.6667ZM13.3334 12L12 12L12 13.3334L10.6667 13.3334L10.6667 14.6667L12 14.6667L12 16L10.6667 16L10.6667 17.3334L12 17.3334L12 18.6667L13.3334 18.6667L13.3334 17.3334L14.6667 17.3334L14.6667 18.6667L16 18.6667L16 17.3334L17.3334 17.3334L17.3334 16L16 16L16 14.6667L17.3334 14.6667L17.3334 13.3334L16 13.3334L16 12L17.3334 12L16.6667 10.6667L16 10.6667L16 12L14.6667 12L14.6667 10.6667L13.3334 10.6667L13.3334 12ZM13.3334 13.3334L13.3334 12L14.6667 12L14.6667 13.3334L13.3334 13.3334ZM13.3334 14.6667L13.3334 13.3334L12 13.3334L12 14.6667L13.3334 14.6667ZM14.6667 14.6667L13.3334 14.6667L13.3334 16L12 16L12 17.3334L13.3334 17.3334L13.3334 16L14.6667 16L14.6667 17.3334L16 17.3334L16 16L14.6667 16L14.6667 14.6667ZM14.6667 14.6667L16 14.6667L16 13.3334L14.6667 13.3334L14.6667 14.6667Z"/></g></svg>

<svg xmlns="http://www.w3.org/2000/svg" fill="none" viewBox="0 0 28 28" focusable="false"><defs><linearGradient id="Croatia_svg__d" x1="10.667" x2="10.667" y1="10.667" y2="18.667" gradientUnits="userSpaceOnUse"><stop stop-color="#FF212E"/><stop offset="1" stop-color="#FD0D1B"/></linearGradient></defs><path fill="none" d="M0 0h28v28H0z"/><rect width="28" height="20" y="4" fill="#FFF" rx="3"/><rect width="27.5" height="19.5" x=".25" y="4.25" stroke="#D6D8DD" stroke-width=".5" rx="3"/><mask id="Croatia_svg__a" width="28" height="20" x="0" y="4" mask-type="alpha" maskUnits="userSpaceOnUse"><rect width="28" height="20" y="4" fill="#FFF" rx="3"/><rect width="27.5" height="19.5" x=".25" y="4.25" stroke="#F5F5F5" stroke-width=".5" rx="3"/></mask><g mask="url(#Croatia_svg__a)"><path fill="#FF202D" fill-rule="evenodd" d="M0 10.66h28V4H0z"/><path d="M28 10.66V4H0v6.66z"/></g><g mask="url(#Croatia_svg__a)" opacity=".5"><mask id="Croatia_svg__b" fill="#fff"><path fill-rule="evenodd" d="m10.667 9.333.666-.666.667.666v1.334h-1.333zm2.666 0L14 8.667l.667.666v1.334h-1.334zm3.334-.666L16 9.333v1.334h1.333V9.333z" clip-rule="evenodd"/></mask><path fill="#1895DB" fill-rule="evenodd" d="m10.667 9.333.666-.666.667.666v1.334h-1.333zm2.666 0L14 8.667l.667.666v1.334h-1.334zm3.334-.666L16 9.333v1.334h1.333V9.333z" clip-rule="evenodd" mask="url(#Croatia_svg__b)"/></g><g mask="url(#Croatia_svg__a)" opacity=".5"><mask id="Croatia_svg__c" fill="#fff"><path fill-rule="evenodd" d="M12.667 8.667 12 9.333v1.334h1.333V9.333zm2.666 0-.666.666v1.334H16V9.333z" clip-rule="evenodd"/></mask><path fill="#191F94" fill-rule="evenodd" d="M12.667 8.667 12 9.333v1.334h1.333V9.333zm2.666 0-.666.666v1.334H16V9.333z" clip-rule="evenodd" mask="url(#Croatia_svg__c)"/></g><g mask="url(#Croatia_svg__a)"><path fill="#2027AC" fill-rule="evenodd" d="M0 24h28v-6.67H0z"/><path d="M28 24v-6.67H0V24z"/></g><g mask="url(#Croatia_svg__a)"><mask id="Croatia_svg__e" fill="#fff"><path fill-rule="evenodd" d="M11.333 10.667H12V12h-1.333zm2 0h1.334V12h-1.334zm2.667 0h.667L17.333 12H16zM12 12h1.333v1.333H12zm2.667 0H16v1.333h-1.333zm-4 1.333H12v1.334h-1.333zm2.666 0h1.334v1.334h-1.334zm2.667 0h1.333v1.334H16zm-4 1.334h1.333V16H12zm2.667 0H16V16h-1.333zm-4 1.333H12v1.333h-1.333zm2.666 0h1.334v1.333h-1.334zM16 16h1.333v1.333H16zm-4 1.333h1.333v1.334H12zm2.667 0H16v1.334h-1.333z" clip-rule="evenodd"/></mask><path fill="url(#Croatia_svg__d)" fill-rule="evenodd" d="M11.333 10.667H12V12h-1.333zm2 0h1.334V12h-1.334zm2.667 0h.667L17.333 12H16zM12 12h1.333v1.333H12zm2.667 0H16v1.333h-1.333zm-4 1.333H12v1.334h-1.333zm2.666 0h1.334v1.334h-1.334zm2.667 0h1.333v1.334H16zm-4 1.334h1.333V16H12zm2.667 0H16V16h-1.333zm-4 1.333H12v1.333h-1.333zm2.666 0h1.334v1.333h-1.334zM16 16h1.333v1.333H16zm-4 1.333h1.333v1.334H12zm2.667 0H16v1.334h-1.333z" clip-rule="evenodd" mask="url(#Croatia_svg__e)"/></g></svg>
